X:1
T:Es glänzt die laue Mondennacht
T:Josef Rheinberger
T:Text: Karl Stieler
T:Es glänzt die laue Mondennacht
T:Nr. 1 aus Fünf Lieder, Op. 31
T:CPDL - Creative Commons Attribution Non Commercial 3.0
T:CPDL - Creative Commons Attribution Non Commercial 3.0
C:Josef Rheinberger
Z:Karl Stieler
Z:CPDL - Creative Commons Attribution Non Commercial 3.0
%%score [ 1 2 3 4 ]
L:1/8
Q:1/4=60
M:3/4
K:F
V:1 treble nm="Sopran"
V:2 treble nm="Alt"
V:3 treble-8 nm="Tenor"
V:4 bass nm="Bass"
V:1
!pp!"^Langsam, im Volkston" c2 | c3 c cc | c>c c2 c2 | c3 c cc | c2 c2 cA | F3!<(! F GA!<)! | %6
w: 1.~Es|glänzt die lau- e|Mon- den- nacht, die|al- ten Gie- bel|ra- gen; das _|Bün- del ist zu-|
 A>!>(!D D2!>)!!p! GF | F2 E2 A>G | G2 F2 z!f! A | A>A f2 d2 | ^cd e2 A2 | d3 A!>(! BG | %12
w: recht ge- macht, am _|Tor- weg steht der|Wa- gen. Und|un- term Tor- weg|ste- hen zwei, kein|Drit- ter stand da-|
 F2 E2!>)!!p! GA | B>A G2 GA | B>A G2!<(! FG | AA!<)!{/c} B3!>(! A |[Q:1/4=56]"^rit." AG!>)! F2 :| %17
w: ne- ben, die _|spra- chen wohl von _|Lieb' und Treu', und _|dann~ geht's fort ins|Le- * ben!|
V:2
!pp! C2 | A3 A GF | A>G G2 G2 |!<(! E3 E FG!<)! |!>(! G2 F2!>)! C2 | C3!<(! C ^CC!<)! | %6
 D>!>(!D D2!>)!!p! D2 | =C2 C2 C>B, | B,2 A,2 z!f! A | F>F F2 A2 | AA A2 A2 | A3 D!>(! D_D | %12
 C2 C2!>)!!p! C2 | B,>B, B,2 C2 | B,>B, B,2!<(! D2 | FF!<)! F3!>(! F | E2!>)! C2 :| %17
V:3
!pp! c2 | c3 c BA | B>B B2 B2 |!<(! G3 G AB!<)! |!>(! B2 A2!>)! AF | F3 F FF | F>F F2!p! GA | %7
w: 2.~Das|letz- te Rös- lein|gab sie ihm und|gab ihm bei- de|Hän- de und _|küss- te ihn zum|Ab- schied noch, da _|
 B2 B2 DE | E2 F2 z!f! A | A>A A2 f2 | ed ^c2 c2 | d3 d!>(! GB | A2 G2!>)!!p! E2 | D>D D2 E2 | %14
w: war ihr Trost zu|En- de. Der|Huf- schlag tönt, das|Post- horn klang, von|dan- nen zog der|Wa- gen; ihr|war, als hätt' er|
 D>D D2!<(! =B2 | cc!<)! d3!>(! c | B2!>)! A2 :| %17
w: all ihr Glück im|Bün- del fort- ge-|tra- gen!|
V:4
!pp! C,2 | F,3 F, F,F, | F,>F, F,2 F,2 | F,3 F, F,F, | F,2 F,2 F,2 | A,,3 A,, A,,A,, | %6
 B,,>B,, B,,2!p! B,,2 | C,2 C,2 C,C, | F,,2 F,,2 z!f! A, | D,>D, D,2 F,2 | A,A, A,2 G,2 | %11
 F,3 F,!>(! G,G, | C,2 C,2!>)!!p! C,2 | G,,>G,, G,,2 C,2 | G,,>G,, G,,2!<(! G,2 | %15
 C,C,!<)! C3!>(! C, |"^(Einmal wiederholt.)" C,2!>)! F,2 :| %17

